X: 1339
T: Masum Bakışlım
C: Hâlis Bey
O: Turkey
F: http://compmusic.upf.edu/node/140
N: rengidil--sarki--turkaksagi--masum_bakislim--halis_bey
N: makam= rengidil
N: form= sarki
N: usul= turkaksagi = 5/8
M: 5/8
L: 1/16
K: C _7/8A _1/4B _7/8d 
Q: 1/4=120
%%MIDI tuningsystem comma53
c4 f4 g2 | ab agf4z2  | c'4 d'4 c'b | c'b agf4z2  | \
w:  Ma sum  ba  |  kış *  *  *  lım   |  çeh ren de  |  ki  *  *  *  nûr    | 
c4 f4 a2 | 
w:  Ma sum  ba  | 
gf edc4z2  | c4 d4 f2 | ed cBc4z2  | c4 B4 A2 | \
w:  kış *  *  *  lım   |  çeh ren de  |  ki  *  *  *  nûr    |  Et mez  mi   | 
BA GFG4z2  | 
w:  vî *  *  *  ran   | 
G4 A4 B2 | ed cBc4z2  | d2c2 B4 A2 | G2 F2c4z2  | \
w:  bir  kal bi   |  mâ *  *  *  mûr    |  Et *  mez  mi   |  vî *  ran   | 
F4 G4 A2 | GF FEF4z2  | 
w:  bu  kal bi   |  mâ *  *  *  mûr    | 
F4 c4 d2 | e2 def4z2  | f4 b4 ag | ag fef4z2  | \
w:  SAZ  |   |  İs met  se  |  râ *  *  *  yi   | 
=d4 _e4 fg | 
w:  hüs nün de   | 
f_e e=dd2 e2f2  | a2g2 f2e2 f2 | gf edc4z2  | \
w:  şim *  *  *  di    |  İs *  met  *  se  |  râ *  *  *  yi   | 
c4 B4 A2 | 
w:  hüs nün de   | 
AG FEF4z2  | c4 B4 A2 | BA GFG4z2  | G4 A4 B2 | \
w:  şim *  *  *  di    |  Et mez  mi   |  vî *  *  *  ran   |  bir  kal bi   | 
ed cBc4z2  | 
w:  mâ *  *  *  mûr    | 
d2c2 B4 A2 | G2 F2c4z2  | F4 G4 A2 | GF FEF4z2  | |


